packages/astro-components-stencil/src/icons/note-add.svg

<svg xmlns="http://www.w3.org/2000/svg" viewBox="0 0 24 24"><g xmlns="http://www.w3.org/2000/svg" id="note-add" fill-rule="nonzero">
            <path d="M14.59 2.59c-.38-.38-.89-.59-1.42-.59H6c-1.1 0-2 .9-2 2v16c0 1.1.89 2 1.99 2H18c1.1 0 2-.9 2-2V8.83c0-.53-.21-1.04-.59-1.41l-4.82-4.83zM15 16h-2v2c0 .55-.45 1-1 1s-1-.45-1-1v-2H9c-.55 0-1-.45-1-1s.45-1 1-1h2v-2c0-.55.45-1 1-1s1 .45 1 1v2h2c.55 0 1 .45 1 1s-.45 1-1 1zm-2-8V3.5L18.5 9H14c-.55 0-1-.45-1-1z"/>
        </g></svg>

<svg width="24" height="24" viewBox="0 0 24 24" fill="none" xmlns="http://www.w3.org/2000/svg">
<path fill-rule="evenodd" clip-rule="evenodd" d="M14.59 2.59C14.21 2.21 13.7 2 13.17 2H6C4.9 2 4 2.9 4 4V20C4 21.1 4.89 22 5.99 22H18C19.1 22 20 21.1 20 20V8.83C20 8.3 19.79 7.79 19.41 7.42L14.59 2.59ZM16 15C16 15.55 15.55 16 15 16H13V18C13 18.55 12.55 19 12 19C11.45 19 11 18.55 11 18V16H9C8.45 16 8 15.55 8 15C8 14.45 8.45 14 9 14H11V12C11 11.45 11.45 11 12 11C12.55 11 13 11.45 13 12V14H15C15.55 14 16 14.45 16 15ZM13 3.5V8C13 8.55 13.45 9 14 9H18.5L13 3.5Z" fill="black"/>
</svg>
